X: 305792
M: 6/8
L: 1/8
K: C
cGe cGe | ced cBA | GEc GEc | Adc BAG |\
cGe cGe | ced cBA | GEc DdB | ccc c2 H|]
g |\
ege ccc | faf ddd | BdB GGG | Adc BAG |\
ege ccc | faf ddd | BdB GAc | c3 "^D.C."c2 |]


